img/svg/icon-gift.svg

<svg width="80" height="78" viewBox="0 0 80 78" fill="none" xmlns="http://www.w3.org/2000/svg">
<path d="M72.7375 24.2802H72.625H44.8375C60.3625 17.7388 61.6 13.5675 61.0375 11.2922C59.6875 7.50007 54.625 4.65597 49.7875 6.17282C43.4875 8.16369 41.8 16.0324 40.1125 21.7206C37.8625 15.9376 35.8375 8.63771 30.8875 4.94038C29.425 3.89754 27.4 2.7599 24.3625 3.04431C19.8625 3.42353 13.3375 8.16369 15.925 13.4727C18.5125 18.5921 26.8375 21.8154 32.35 24.3751H7.6H7.2625C5.4625 24.3751 4 25.6075 4 27.1243V37.8371C4 39.354 5.4625 40.5864 7.2625 40.5864H7.6V72.1559V74.4312V75H72.625V74.526V72.1559V40.4916H72.7375C74.5375 40.4916 76 39.2592 76 37.7423V27.0295C76 25.5127 74.5375 24.2802 72.7375 24.2802ZM51.7 8.5429C54.0625 8.25849 57.325 9.77535 57.6625 11.5766C58.1125 14.2311 53.8375 16.6012 51.925 17.644C49.1125 19.2557 46.4125 20.1089 43.7125 21.531C44.725 18.0232 46.525 9.20653 51.7 8.5429ZM25.9375 18.0232C23.4625 16.6012 18.625 13.8519 18.7375 10.6286C18.85 7.21566 25.15 4.37156 28.6375 6.93125C33.025 10.1546 35.05 17.4544 36.625 22.6686C33.025 21.2465 29.5375 20.0141 25.9375 18.0232ZM32.6875 72.1559H10.8625V40.4916H32.6875V72.1559ZM32.6875 37.5527H7.375V27.1243H32.6875V37.5527ZM44.1625 37.5527V40.3968V72.1559H36.0625V40.4916V37.6475V27.2191H44.1625V37.5527ZM69.25 72.1559H47.425V40.4916H69.25V72.1559ZM72.5125 37.5527H47.425V27.1243H72.5125V37.5527V37.5527Z" fill="#81B3D2"/>
</svg>

<svg xmlns="http://www.w3.org/2000/svg" width="80" height="78" fill="none"><path fill="#81B3D2" d="M72.737 24.28h-27.9c15.525-6.541 16.763-10.713 16.2-12.988-1.35-3.792-6.412-6.636-11.25-5.12-6.3 1.992-7.987 9.86-9.675 15.549-2.25-5.783-4.275-13.083-9.225-16.78-1.462-1.043-3.487-2.181-6.524-1.897-4.5.38-11.025 5.12-8.438 10.429 2.587 5.12 10.912 8.342 16.425 10.902H7.263c-1.8 0-3.263 1.233-3.263 2.75v10.712c0 1.517 1.463 2.75 3.263 2.75H7.6V75h65.025V40.492h.112c1.8 0 3.263-1.233 3.263-2.75V27.03c0-1.517-1.463-2.75-3.263-2.75ZM51.7 8.543c2.362-.285 5.625 1.232 5.962 3.034.45 2.654-3.825 5.024-5.737 6.067-2.813 1.612-5.512 2.465-8.212 3.887 1.012-3.508 2.812-12.324 7.987-12.988Zm-25.763 9.48c-2.475-1.422-7.312-4.171-7.2-7.394.113-3.413 6.413-6.257 9.9-3.698 4.388 3.224 6.413 10.523 7.988 15.738-3.6-1.422-7.087-2.655-10.688-4.646Zm6.75 54.133H10.863V40.492h21.825v31.664Zm0-34.603H7.375V27.124h25.313v10.429Zm11.476 0v34.603h-8.1V27.219h8.1v10.334ZM69.25 72.156H47.425V40.492H69.25v31.664Zm3.263-34.603H47.425V27.124h25.088v10.429Z"/></svg>
